X:4406
T:Mowing Machine, The
O:england
M:4/4
L:1/8
C:Junior Crehan
S:Tony Crehan
R:Reel
A:West Clare
B:"Junior Crehan, This is your Musical Life"
H:a pamphlet prepared for Junior's birthday
K:Em
B|:E2-E2 EDB,A,|G,B,-B,2 DB,{C}B,A,|B,E{F}ED EFGA|(3B^cd ef gfed|
BE-E2 EGFE|DB,-B,2 DB,B,A,|B,E{F}ED EFGA|1(3B^cd ed e2 ed:|2(3B^cd ed e2
ef|
|:g2 eg bgeg|f2 df afdf|g2 eg bgee|f2 ed Beef|
g2 eg bgeg|f2 df afdf|gbaf gfeB|1dBAF E2 ef:|2dBAF E4||


